Automatic/src/svg/Sony - PlayStation Portable-content.svg

<svg xmlns="http://www.w3.org/2000/svg" xml:space="preserve" width="298.667" height="320"><defs><clipPath id="a" clipPathUnits="userSpaceOnUse"><path d="M0 256h256V0H0Z"/></clipPath></defs><g clip-path="url(#a)" transform="matrix(1.33333 0 0 -1.33333 -21.333 330.667)"><path d="M0 0c0-5.596-9-13.647-9-13.647-30.087-22.84-58.478-31.843-99-31.843-40.518 0-68.917 9.003-99 31.843 0 0-9 4.549-9 13.647v77.333c0 60.293 48.357 109.177 108 109.177S0 137.626 0 77.333zm-28.79 157.344C-49.946 178.731-78.077 190.51-108 190.51s-58.053-11.779-79.21-33.166c-21.145-21.375-32.79-49.79-32.79-80.011V0c0-10.375 8.853-15.913 10.825-17.018C-178.713-40.077-149.374-49.49-108-49.49c41.48 0 70.863 9.461 101.419 32.657l.128.098.12.107C-4.607-15.084 4-7.028 4 0v77.333c0 30.221-11.646 58.636-32.79 80.011" style="fill:#fff;fill-opacity:1;fill-rule:nonzero;stroke:none" transform="translate(236 57.49)"/><path d="M0 0c-55.228 0-100 44.772-100 100 0 55.227 44.772 100 100 100s100-44.773 100-100C100 44.772 55.228 0 0 0m0 204c-57.346 0-104-46.654-104-104S-57.346-4 0-4s104 46.654 104 104S57.346 204 0 204" style="fill:#fff;fill-opacity:1;fill-rule:nonzero;stroke:none" transform="translate(128 36)"/><path d="M0 0c-49.707 0-90 40.293-90 90s40.293 90 90 90 90-40.293 90-90S49.707 0 0 0m0 184c-51.832 0-94-42.168-94-94S-51.832-4 0-4s94 42.168 94 94-42.168 94-94 94" style="fill:#fff;fill-opacity:1;fill-rule:nonzero;stroke:none" transform="translate(128 46)"/><path d="M0 0c-19.881 0-36 16.119-36 36 0 19.886 16.119 36 36 36s36-16.114 36-36C36 16.119 19.881 0 0 0m0 76c-22.056 0-40-17.944-40-40S-22.056-4 0-4s40 17.944 40 40S22.056 76 0 76" style="fill:#fff;fill-opacity:1;fill-rule:nonzero;stroke:none" transform="translate(128 100)"/></g></svg>

<?xml version="1.0" encoding="UTF-8" standalone="no"?>
<svg
   xmlns:dc="http://purl.org/dc/elements/1.1/"
   xmlns:cc="http://creativecommons.org/ns#"
   xmlns:rdf="http://www.w3.org/1999/02/22-rdf-syntax-ns#"
   xmlns:svg="http://www.w3.org/2000/svg"
   xmlns="http://www.w3.org/2000/svg"
   viewBox="0 0 298.66665 320"
   height="320"
   width="298.66666"
   xml:space="preserve"
   id="svg2"
   version="1.1"><metadata
     id="metadata8"><rdf:RDF><cc:Work
         rdf:about=""><dc:format>image/svg+xml</dc:format><dc:type
           rdf:resource="http://purl.org/dc/dcmitype/StillImage" /></cc:Work></rdf:RDF></metadata><defs
     id="defs6"><clipPath
       id="clipPath18"
       clipPathUnits="userSpaceOnUse"><path
         id="path16"
         d="M 0,256 H 256 V 0 H 0 Z" /></clipPath></defs><g
     transform="matrix(1.3333333,0,0,-1.3333333,-21.333333,330.66693)"
     id="g10"><g
       id="g12"><g
         clip-path="url(#clipPath18)"
         id="g14"><g
           transform="translate(236,57.4902)"
           id="g20"><path
             id="path22"
             style="fill:#ffffff;fill-opacity:1;fill-rule:nonzero;stroke:none"
             d="m 0,0 c 0,-5.596 -9,-13.647 -9,-13.647 -30.087,-22.84 -58.478,-31.843 -99,-31.843 -40.518,0 -68.917,9.003 -99,31.843 0,0 -9,4.549 -9,13.647 v 77.333 c 0,60.293 48.357,109.177 108,109.177 59.643,0 108,-48.884 108,-109.177 z m -28.79,157.344 c -21.156,21.387 -49.287,33.166 -79.21,33.166 -29.923,0 -58.053,-11.779 -79.21,-33.166 C -208.355,135.969 -220,107.554 -220,77.333 V 0 c 0,-10.375 8.853,-15.913 10.825,-17.018 30.462,-23.059 59.801,-32.472 101.175,-32.472 41.48,0 70.863,9.461 101.419,32.657 l 0.128,0.098 0.12,0.107 C -4.607,-15.084 4,-7.028 4,0 v 77.333 c 0,30.221 -11.646,58.636 -32.79,80.011" /></g><g
           transform="translate(128,36)"
           id="g24"><path
             id="path26"
             style="fill:#ffffff;fill-opacity:1;fill-rule:nonzero;stroke:none"
             d="m 0,0 c -55.228,0 -100,44.772 -100,100 0,55.227 44.772,100 100,100 55.228,0 100,-44.773 100,-100 C 100,44.772 55.228,0 0,0 M 0,204 C -57.346,204 -104,157.346 -104,100 -104,42.654 -57.346,-4 0,-4 57.346,-4 104,42.654 104,100 104,157.346 57.346,204 0,204" /></g><g
           transform="translate(128,46)"
           id="g28"><path
             id="path30"
             style="fill:#ffffff;fill-opacity:1;fill-rule:nonzero;stroke:none"
             d="m 0,0 c -49.707,0 -90,40.293 -90,90 0,49.707 40.293,90 90,90 49.707,0 90,-40.293 90,-90 C 90,40.293 49.707,0 0,0 m 0,184 c -51.832,0 -94,-42.168 -94,-94 0,-51.832 42.168,-94 94,-94 51.832,0 94,42.168 94,94 0,51.832 -42.168,94 -94,94" /></g><g
           transform="translate(128,100)"
           id="g32"><path
             id="path34"
             style="fill:#ffffff;fill-opacity:1;fill-rule:nonzero;stroke:none"
             d="M 0,0 C -19.881,0 -36,16.119 -36,36 -36,55.886 -19.881,72 0,72 19.881,72 36,55.886 36,36 36,16.119 19.881,0 0,0 M 0,76 C -22.056,76 -40,58.056 -40,36 -40,13.944 -22.056,-4 0,-4 22.056,-4 40,13.944 40,36 40,58.056 22.056,76 0,76" /></g></g></g></g></svg>
